image/appstore.svg

<svg width="81" height="24" viewBox="0 0 81 24" fill="none" xmlns="http://www.w3.org/2000/svg">
<path d="M70.0422 0H9.78293C9.372 0 9.01961 0.0585366 8.6081 0.117073C8.19717 0.176195 7.84478 0.293854 7.49239 0.470049C7.14 0.645658 6.84615 0.880976 6.55288 1.17483C6.25903 1.4681 6.0243 1.76195 5.8481 2.11434C5.67762 2.46742 5.55875 2.84316 5.49512 3.23005C5.43659 3.64156 5.37805 4.05249 5.37805 4.40488V19.0291C5.37805 19.4406 5.43659 19.793 5.49512 20.2039C5.55425 20.6148 5.67191 20.9672 5.8481 21.3196C6.02371 21.7311 6.25903 22.0244 6.55288 22.3182C6.84615 22.6121 7.14 22.8468 7.49239 23.023C7.84219 23.2015 8.21924 23.3206 8.6081 23.3754C9.01961 23.434 9.372 23.4925 9.78293 23.4925H71.2171C71.628 23.4925 71.9804 23.434 72.3919 23.3754C72.7808 23.3206 73.1578 23.2015 73.5076 23.023C73.86 22.8474 74.1539 22.6121 74.4471 22.3182C74.741 22.0244 74.9757 21.7311 75.1519 21.3787C75.3305 21.0288 75.4496 20.6515 75.5043 20.2624C75.5634 19.8515 75.6219 19.4991 75.6219 19.0882V18.5596V5.57971V4.93346V4.40488C75.6219 3.99395 75.5634 3.64156 75.5043 3.23005C75.4496 2.84117 75.3305 2.46411 75.1519 2.11434C74.9757 1.76195 74.741 1.4681 74.4471 1.17483C74.1539 0.880976 73.86 0.646244 73.5076 0.470049C73.1578 0.291375 72.7808 0.172091 72.3919 0.117073C71.9804 0.0585366 71.628 0 71.2171 0H70.0422Z" fill="#B7B7B7"/>
<path d="M10.3115 22.9646H9.78291C9.43052 22.9646 9.07813 22.9646 8.66721 22.8475C8.32494 22.7849 7.99022 22.6864 7.66857 22.5537C7.37472 22.3775 7.08145 22.2013 6.84613 21.966C6.61199 21.7318 6.37667 21.4374 6.25901 21.1441C6.0834 20.8503 6.02428 20.5564 5.96516 20.1455C5.90662 19.7346 5.84808 19.3231 5.84808 19.0298V4.93359V4.405C5.84808 4.11174 5.84808 3.70022 5.96516 3.2893C6.08282 2.99544 6.14135 2.64305 6.31755 2.34978C6.49374 2.05593 6.66994 1.76208 6.90525 1.52735C7.13999 1.29261 7.43384 1.11642 7.72711 0.940224C8.02096 0.764029 8.37335 0.704907 8.72574 0.64637C9.07813 0.529297 9.48906 0.529297 9.78291 0.529297H71.2171C71.5109 0.529297 71.9218 0.529297 72.3328 0.64637C72.6852 0.704907 72.979 0.822565 73.3314 0.940224C73.6253 1.11583 73.9185 1.29261 74.1538 1.52735C74.3886 1.76208 74.6233 2.05593 74.741 2.34978C74.9172 2.64305 74.9757 2.99544 75.0348 3.2893C75.0933 3.64169 75.1519 4.05261 75.1519 4.405V19.0304C75.1519 19.3828 75.0933 19.7352 75.0348 20.1461C74.9721 20.4883 74.8736 20.823 74.741 21.1447C74.5648 21.438 74.3886 21.7318 74.1538 21.9666C73.9185 22.2019 73.6253 22.4366 73.3314 22.5543C73.0375 22.7299 72.7443 22.789 72.3328 22.8475C71.9804 22.9061 71.5694 22.9061 71.2171 22.9652L10.3115 22.9646Z" fill="#000001"/>
<path d="M19.9437 11.9222C19.9437 10.2773 21.2947 9.51398 21.3533 9.45545C20.5899 8.33916 19.4151 8.22208 19.0042 8.16296C18.0056 8.04589 17.066 8.75067 16.5375 8.75067C16.0089 8.75067 15.245 8.16296 14.4231 8.16296C13.3659 8.16296 12.3673 8.8092 11.7802 9.7493C10.6639 11.6869 11.4863 14.6236 12.602 16.2094C13.1306 16.9733 13.7769 17.8543 14.5993 17.8543C15.4212 17.7957 15.715 17.3257 16.7137 17.3257C17.7117 17.3257 17.947 17.8543 18.828 17.8543C19.709 17.8543 20.2376 17.0904 20.7656 16.2679C21.4118 15.3875 21.6471 14.506 21.6471 14.4474C21.6471 14.506 19.9437 13.8603 19.9437 11.9222ZM18.2994 7.16491C18.7103 6.63633 19.0627 5.87242 18.9451 5.10911C18.2994 5.10911 17.5355 5.52003 17.066 6.10774C16.6545 6.5772 16.3021 7.34111 16.4198 8.10442C17.1246 8.10442 17.8885 7.6935 18.2994 7.16491ZM30.2221 15.915H27.4616L26.8153 17.9122H25.6405L28.2834 10.6291H29.4582L32.1012 17.9122H30.9269L30.2221 15.915ZM27.7548 15.034H29.9868L28.8711 11.8039H28.8126L27.7548 15.034ZM37.7985 15.2687C37.7985 16.9136 36.9176 17.9708 35.5665 17.9708C34.8032 17.9708 34.2155 17.6184 33.9217 17.0313V19.6742H32.8059V12.6264H33.8631V13.5074C34.157 12.9196 34.8032 12.5673 35.5665 12.5673C36.8584 12.5087 37.7985 13.6244 37.7985 15.2687ZM36.6237 15.2687C36.6237 14.2121 36.0951 13.5068 35.2141 13.5068C34.3917 13.5068 33.8046 14.2115 33.8046 15.2687C33.8046 16.3259 34.3917 17.0307 35.2141 17.0307C36.0951 17.0307 36.6237 16.3259 36.6237 15.2687ZM43.613 15.2687C43.613 16.9136 42.732 17.9708 41.381 17.9708C40.6177 17.9708 40.0299 17.6184 39.7361 17.0313V19.6742H38.621V12.6264H39.6781V13.5074C39.972 12.9196 40.6182 12.5673 41.3816 12.5673C42.7326 12.5087 43.613 13.6244 43.613 15.2687ZM42.4967 15.2687C42.4967 14.2121 41.9681 13.5068 41.0871 13.5068C40.2653 13.5068 39.6776 14.2115 39.6776 15.2687C39.6776 16.3259 40.2653 17.0307 41.0871 17.0307C41.9681 17.0307 42.4967 16.3259 42.4967 15.2687ZM47.4893 15.8564C47.5478 16.5612 48.2526 17.0313 49.2512 17.0313C50.1907 17.0313 50.837 16.5612 50.837 15.915C50.837 15.3278 50.4255 15.034 49.4859 14.7993L48.5464 14.5645C47.1954 14.2121 46.6083 13.6244 46.6083 12.6264C46.6083 11.3924 47.724 10.5114 49.2512 10.5114C50.7778 10.5114 51.8356 11.3924 51.8941 12.6264H50.7778C50.7193 11.9216 50.1322 11.4515 49.2512 11.4515C48.3702 11.4515 47.7831 11.9216 47.7831 12.5673C47.7831 13.0958 48.194 13.3897 49.1336 13.6244L49.956 13.8006C51.4241 14.153 52.0703 14.7407 52.0703 15.7979C52.0703 17.1483 50.954 18.0293 49.2512 18.0293C47.6063 18.0293 46.5498 17.2074 46.4906 15.8564H47.4893ZM54.3023 11.3345V12.5678H55.3004V13.4488H54.3029V16.3856C54.3029 16.8551 54.4785 17.0313 54.9486 17.0313H55.301V17.9122C55.1839 17.9708 54.9486 17.9708 54.7138 17.9708C53.6567 17.9708 53.2458 17.5598 53.2458 16.5618V13.5074H52.4818V12.6264H53.2458V11.393H54.3029L54.3023 11.3345ZM55.9466 15.2693C55.9466 13.6244 56.9453 12.5673 58.4719 12.5673C59.9991 12.5673 60.9977 13.6244 60.9977 15.2693C60.9977 16.9727 59.9991 17.9708 58.4719 17.9708C56.8861 17.9708 55.9466 16.9136 55.9466 15.2693ZM59.8815 15.2693C59.8815 14.0945 59.3529 13.4488 58.4719 13.4488C57.5909 13.4488 57.0623 14.0945 57.0623 15.2693C57.0623 16.4435 57.5909 17.0898 58.4719 17.0898C59.3529 17.0898 59.8815 16.385 59.8815 15.2693ZM61.8787 12.5678H62.9359V13.5074C63.1115 12.9196 63.5816 12.5673 64.2278 12.5673C64.404 12.5673 64.5217 12.5673 64.5802 12.6258V13.6244C64.5217 13.5659 64.2863 13.5659 64.1101 13.5659C63.4054 13.5659 62.9944 14.0359 62.9944 14.7993V17.9708H61.8787V12.5678ZM69.6313 16.3259C69.5137 17.266 68.5156 17.9708 67.3408 17.9708C65.8136 17.9708 64.8155 16.9136 64.8155 15.2693C64.8155 13.6244 65.755 12.5087 67.2822 12.5087C68.7503 12.5087 69.6898 13.5074 69.6898 15.1516V15.504H65.9312V15.5626C65.9312 16.4441 66.5183 17.0904 67.3408 17.0904C67.9279 17.0904 68.3979 16.7965 68.5741 16.3265H69.6313V16.3259ZM65.9312 14.7407H68.5741C68.5741 13.9183 68.0456 13.3897 67.2822 13.3897C66.5183 13.3897 65.9897 13.9774 65.9312 14.7407ZM27.5786 5.11086C28.6358 5.11086 29.2235 5.75711 29.2235 6.87281C29.2235 7.98852 28.6358 8.63477 27.5786 8.63477H26.2873V5.11086H27.5786ZM26.8738 8.16472H27.5201C28.2249 8.16472 28.6949 7.69525 28.6949 6.93135C28.6949 6.16803 28.2834 5.69798 27.5201 5.69798H26.8738V8.16472ZM29.8698 7.28316C29.8698 6.40218 30.3392 5.93213 31.1025 5.93213C31.8664 5.93213 32.3359 6.46072 32.3359 7.28316C32.3359 8.16413 31.8664 8.63418 31.1025 8.63418C30.3392 8.69272 29.8698 8.16413 29.8698 7.28316ZM31.8073 7.28316C31.8073 6.69603 31.5732 6.40218 31.1025 6.40218C30.6331 6.40218 30.3978 6.75457 30.3978 7.28316C30.3978 7.87028 30.6331 8.22267 31.1025 8.22267C31.5726 8.22267 31.8073 7.87028 31.8073 7.28316ZM35.6842 8.63418H35.1556L34.627 6.69662H34.5685L34.0393 8.63418H33.5107L32.8059 5.99184H33.3345L33.8046 7.98852H33.8631L34.3917 5.99184H34.9203L35.4489 7.98852H35.5074L35.9775 5.99184H36.506L35.6842 8.63477V8.63418ZM37.0346 5.99125H37.5632V6.40218H37.6217C37.7394 6.10833 38.0333 5.93213 38.3857 5.93213C38.9728 5.93213 39.3252 6.28452 39.3252 6.93077V8.63418H38.7966V7.04784C38.7966 6.63691 38.621 6.40218 38.2095 6.40218C37.7979 6.40218 37.5632 6.63691 37.5632 7.04842V8.57506H37.0346V5.99125ZM40.0891 4.93467H40.6177V8.63418H40.0891V4.93467ZM41.3218 7.28316C41.3218 6.40218 41.7919 5.93213 42.5558 5.93213C43.3191 5.93213 43.7892 6.46072 43.7892 7.28316C43.7892 8.16413 43.3191 8.63418 42.5558 8.63418C41.7919 8.69272 41.3218 8.16413 41.3218 7.28316ZM43.3191 7.28316C43.3191 6.69603 43.0844 6.40218 42.6143 6.40218C42.1443 6.40218 41.9096 6.75457 41.9096 7.28316C41.9096 7.87028 42.1443 8.22267 42.6143 8.22267C43.0253 8.22267 43.3191 7.87028 43.3191 7.28316ZM44.3763 7.87028C44.3763 7.40081 44.7287 7.10696 45.3749 7.10696L46.0797 7.04842V6.81311C46.0797 6.51984 45.9035 6.40218 45.5511 6.40218C45.2573 6.40218 45.0811 6.51925 45.0225 6.69603H44.4939C44.5525 6.22598 44.9634 5.93213 45.5511 5.93213C46.1968 5.93213 46.6083 6.28452 46.6083 6.81311V8.63359H46.0797V8.28179H46.0212C45.8444 8.57506 45.5511 8.69272 45.1987 8.69272C45.09 8.69536 44.9819 8.6759 44.8809 8.63551C44.7799 8.59511 44.6882 8.53463 44.6113 8.45773C44.5344 8.38082 44.4739 8.2891 44.4335 8.18812C44.3931 8.08714 44.3736 7.979 44.3763 7.87028ZM46.0797 7.63555V7.40081L45.4335 7.45935C45.0811 7.45935 44.9049 7.63555 44.9049 7.81174C44.9049 8.04647 45.1396 8.16413 45.3749 8.16413C45.7859 8.22267 46.0797 7.98794 46.0797 7.63555ZM47.2539 7.28374C47.2539 6.4613 47.6655 5.93272 48.3702 5.93272C48.7226 5.93272 49.0159 6.10833 49.1921 6.40276H49.2506V4.93408H49.7798V8.63418H49.2512V8.22325H49.1927C49.1097 8.36759 48.9898 8.48723 48.8452 8.56984C48.7007 8.65245 48.5367 8.69507 48.3702 8.6933C47.724 8.6933 47.2539 8.16472 47.2539 7.28374ZM47.8417 7.28374C47.8417 7.87086 48.1349 8.16472 48.5464 8.16472C48.9574 8.16472 49.2512 7.81233 49.2512 7.28374C49.2512 6.75516 48.9574 6.40276 48.5464 6.40276C48.0764 6.40276 47.8417 6.75516 47.8417 7.28374ZM51.8941 7.28316C51.8941 6.40218 52.3636 5.93213 53.1275 5.93213C53.8908 5.93213 54.3609 6.46072 54.3609 7.28316C54.3609 8.16413 53.8908 8.63418 53.1275 8.63418C52.3636 8.69272 51.8941 8.16413 51.8941 7.28316ZM53.8908 7.28316C53.8908 6.69603 53.6561 6.40218 53.186 6.40218C52.7166 6.40218 52.4813 6.75457 52.4813 7.28316C52.4813 7.87028 52.716 8.22267 53.186 8.22267C53.5976 8.22267 53.8908 7.87028 53.8908 7.28316ZM55.1242 5.99125H55.6528V6.40218H55.7113C55.829 6.10833 56.1228 5.93213 56.4752 5.93213C57.0623 5.93213 57.4147 6.28452 57.4147 6.93077V8.63418H56.8861V7.04784C56.8861 6.63691 56.7105 6.40218 56.299 6.40218C55.8875 6.40218 55.6528 6.63691 55.6528 7.04842V8.57506H55.1242V5.99125ZM60.293 5.34442V5.99067H60.8801V6.46072H60.293V7.81174C60.293 8.10559 60.41 8.22267 60.6454 8.22267H60.821V8.63418H60.5277C59.9406 8.63418 59.7053 8.45798 59.7053 7.9294V6.46072H59.2943V6.04979H59.7053V5.34442H60.293ZM61.5849 4.93467H62.1135V6.40276H62.172C62.2897 6.10891 62.5835 5.93272 62.9944 5.93272C63.5816 5.93272 63.9339 6.28511 63.9339 6.93135V8.63477H63.4054V7.04842C63.4054 6.6375 63.2298 6.40276 62.8182 6.40276C62.4073 6.40276 62.172 6.69603 62.172 7.04842V8.57564H61.6434V4.93467H61.5849ZM66.9293 7.9294C66.8122 8.39886 66.4007 8.69272 65.755 8.69272C64.9911 8.69272 64.5217 8.16413 64.5217 7.34169C64.5217 6.51984 64.9911 5.93213 65.755 5.93213C66.5183 5.93213 66.9293 6.46072 66.9293 7.28316V7.45935H65.0502C65.0502 7.9294 65.3435 8.22267 65.755 8.22267C66.0483 8.22267 66.2836 8.10559 66.4007 7.9294H66.9293ZM65.0502 7.04842H66.4007C66.4007 6.63691 66.1074 6.34364 65.755 6.34364C65.3435 6.40218 65.1088 6.63691 65.0502 7.04842Z" fill="white"/>
</svg>

<svg xmlns="http://www.w3.org/2000/svg" width="81" height="24" fill="none"><path fill="#B7B7B7" d="M70.042 0H9.782c-.41 0-.762.059-1.174.117-.41.06-.763.177-1.116.353-.352.176-.646.411-.94.705a3.572 3.572 0 0 0-.704.94c-.17.352-.29.728-.353 1.115-.058.412-.117.822-.117 1.175v14.624c0 .412.059.764.117 1.175.06.41.177.763.353 1.116.176.411.411.704.705.998.293.294.587.529.94.705.35.178.726.298 1.115.352.412.059.764.117 1.175.117h61.434c.411 0 .763-.058 1.175-.117a3.542 3.542 0 0 0 1.116-.352c.352-.176.646-.41.94-.705.293-.294.528-.587.704-.94a3.54 3.54 0 0 0 .352-1.116c.06-.41.118-.763.118-1.174V4.405c0-.411-.059-.763-.118-1.175a3.537 3.537 0 0 0-.352-1.116 3.57 3.57 0 0 0-.705-.94 3.57 3.57 0 0 0-.94-.704 3.544 3.544 0 0 0-1.115-.353C71.98.06 71.628 0 71.217 0h-1.175Z"/><path fill="#000001" d="M10.312 22.965h-.53c-.351 0-.704 0-1.115-.117a4.957 4.957 0 0 1-.998-.294c-.294-.176-.588-.353-.823-.588-.234-.234-.47-.529-.587-.822-.176-.294-.235-.588-.294-.998-.058-.411-.117-.823-.117-1.116V4.405c0-.293 0-.705.117-1.116.118-.294.176-.646.353-.94.176-.293.352-.587.587-.822.235-.234.529-.41.822-.587.294-.176.646-.235.999-.294C9.078.53 9.489.53 9.783.53h61.434c.294 0 .705 0 1.116.117.352.059.646.177.998.294.294.176.587.353.823.587.235.235.47.529.587.823.176.293.235.645.294.94.058.352.117.763.117 1.115V19.03c0 .353-.059.705-.117 1.116a4.972 4.972 0 0 1-.294.999c-.176.293-.352.587-.587.822-.236.235-.529.47-.823.587-.294.176-.587.235-.998.294-.353.058-.764.058-1.116.117H10.312Z"/><path fill="#fff" d="M19.944 11.922c0-1.645 1.35-2.408 1.41-2.467-.764-1.116-1.939-1.233-2.35-1.292-.998-.117-1.938.588-2.466.588-.53 0-1.293-.588-2.115-.588-1.057 0-2.056.646-2.643 1.586-1.116 1.938-.294 4.875.822 6.46.529.764 1.175 1.645 1.997 1.645.822-.058 1.116-.528 2.115-.528.998 0 1.233.528 2.114.528.881 0 1.41-.764 1.938-1.586.646-.88.881-1.762.881-1.82 0 .058-1.703-.588-1.703-2.526Zm-1.645-4.757c.411-.529.764-1.293.646-2.056-.646 0-1.41.411-1.879.999-.412.47-.764 1.233-.646 1.996.705 0 1.468-.41 1.88-.94Zm11.923 8.75h-2.76l-.647 1.997H25.64l2.643-7.283h1.175l2.643 7.283h-1.174l-.705-1.997Zm-2.467-.881h2.232l-1.116-3.23h-.058l-1.058 3.23Zm10.043.235c0 1.645-.88 2.702-2.232 2.702-.763 0-1.35-.353-1.644-.94v2.643h-1.116v-7.048h1.057v.881c.294-.587.94-.94 1.703-.94 1.292-.058 2.232 1.057 2.232 2.702Zm-1.174 0c0-1.057-.529-1.762-1.41-1.762-.822 0-1.41.704-1.41 1.762 0 1.057.588 1.762 1.41 1.762.881 0 1.41-.705 1.41-1.762Zm6.989 0c0 1.645-.881 2.702-2.232 2.702-.763 0-1.351-.353-1.645-.94v2.643h-1.115v-7.048h1.057v.881c.294-.587.94-.94 1.704-.94 1.35-.058 2.231 1.057 2.231 2.702Zm-1.116 0c0-1.057-.529-1.762-1.41-1.762-.822 0-1.41.704-1.41 1.762 0 1.057.588 1.762 1.41 1.762.881 0 1.41-.705 1.41-1.762Zm4.992.587c.059.705.764 1.175 1.762 1.175.94 0 1.586-.47 1.586-1.116 0-.587-.412-.881-1.351-1.116l-.94-.234c-1.35-.353-1.938-.94-1.938-1.939 0-1.234 1.116-2.115 2.643-2.115 1.527 0 2.585.881 2.643 2.115h-1.116c-.059-.704-.646-1.175-1.527-1.175-.88 0-1.468.47-1.468 1.116 0 .529.411.823 1.35 1.057l.823.177c1.468.352 2.114.94 2.114 1.997 0 1.35-1.116 2.231-2.819 2.231-1.645 0-2.701-.822-2.76-2.173h.998Zm6.813-4.521v1.233h.998v.88h-.997v2.938c0 .47.175.645.646.645h.352v.881c-.117.059-.352.059-.587.059-1.057 0-1.468-.411-1.468-1.41v-3.054h-.764v-.88h.764v-1.234h1.057v-.059Zm1.645 3.934c0-1.645.998-2.702 2.525-2.702s2.526 1.057 2.526 2.702c0 1.704-.999 2.702-2.526 2.702-1.586 0-2.525-1.057-2.525-2.702Zm3.934 0c0-1.175-.528-1.82-1.41-1.82-.88 0-1.409.646-1.409 1.82 0 1.175.529 1.82 1.41 1.82.88 0 1.41-.704 1.41-1.82Zm1.998-2.701h1.057v.94c.175-.588.646-.94 1.292-.94.176 0 .294 0 .352.058v.998c-.058-.058-.294-.058-.47-.058-.705 0-1.116.47-1.116 1.233v3.172H61.88v-5.403Zm7.752 3.758c-.117.94-1.115 1.645-2.29 1.645-1.527 0-2.525-1.057-2.525-2.702s.939-2.76 2.466-2.76c1.468 0 2.408.998 2.408 2.643v.352H65.93v.059c0 .881.587 1.527 1.41 1.527.587 0 1.057-.293 1.233-.764h1.057Zm-3.7-1.585h2.643c0-.823-.528-1.351-1.292-1.351s-1.292.587-1.35 1.35ZM27.58 5.11c1.057 0 1.645.646 1.645 1.762s-.588 1.762-1.645 1.762h-1.292V5.11h1.292Zm-.705 3.054h.646c.705 0 1.175-.47 1.175-1.234 0-.763-.412-1.233-1.175-1.233h-.646v2.467Zm2.996-.882c0-.88.47-1.35 1.232-1.35.764 0 1.234.528 1.234 1.35 0 .881-.47 1.351-1.233 1.351-.764.059-1.233-.47-1.233-1.35Zm1.937 0c0-.587-.234-.88-.704-.88s-.705.352-.705.88c0 .587.235.94.704.94.47 0 .705-.353.705-.94Zm3.877 1.351h-.528l-.529-1.937h-.059l-.529 1.937h-.528l-.705-2.642h.529l.47 1.997h.058l.529-1.997h.528l.529 1.997h.058l.47-1.997h.529l-.822 2.643Zm1.35-2.643h.53v.411h.058c.117-.294.411-.47.764-.47.587 0 .94.353.94.999v1.703h-.53V7.048c0-.411-.175-.646-.587-.646-.411 0-.646.235-.646.646v1.527h-.528V5.991Zm3.055-1.056h.529v3.7h-.529v-3.7Zm1.233 2.348c0-.88.47-1.35 1.234-1.35.763 0 1.233.528 1.233 1.35 0 .881-.47 1.351-1.233 1.351-.764.059-1.234-.47-1.234-1.35Zm1.997 0c0-.587-.235-.88-.705-.88s-.704.352-.704.88c0 .587.234.94.704.94.411 0 .705-.353.705-.94Zm1.057.587c0-.47.353-.763.999-.763l.705-.059v-.235c0-.293-.176-.41-.529-.41-.294 0-.47.116-.529.293h-.528c.059-.47.47-.764 1.057-.764.646 0 1.057.353 1.057.881v1.82h-.528v-.351h-.059c-.177.293-.47.41-.822.41a.803.803 0 0 1-.823-.822Zm1.704-.234V7.4l-.646.058c-.353 0-.53.177-.53.353 0 .234.236.352.47.352.412.059.706-.176.706-.528Zm1.174-.352c0-.823.412-1.351 1.116-1.351.353 0 .646.175.822.47h.059V4.934h.529v3.7h-.529v-.41h-.058a.937.937 0 0 1-.823.47c-.646 0-1.116-.53-1.116-1.41Zm.588 0c0 .587.293.88.704.88s.705-.352.705-.88c0-.529-.294-.881-.705-.881-.47 0-.704.352-.704.88Zm4.052 0c0-.882.47-1.352 1.233-1.352.764 0 1.234.529 1.234 1.351 0 .881-.47 1.351-1.233 1.351-.764.059-1.234-.47-1.234-1.35Zm1.997 0c0-.588-.235-.882-.705-.882s-.705.353-.705.881c0 .587.235.94.705.94.412 0 .705-.353.705-.94Zm1.233-1.293h.529v.411h.058c.118-.294.412-.47.764-.47.587 0 .94.353.94.999v1.703h-.529V7.048c0-.411-.175-.646-.587-.646-.411 0-.646.235-.646.646v1.527h-.529V5.991Zm5.169-.647v.647h.587v.47h-.587v1.35c0 .295.117.412.352.412h.176v.411h-.293c-.587 0-.823-.176-.823-.705V6.461h-.41V6.05h.41v-.706h.588Zm1.292-.41h.529v1.469h.058c.118-.294.412-.47.822-.47.588 0 .94.352.94.998v1.704h-.529V7.048c0-.41-.175-.645-.587-.645-.41 0-.646.293-.646.645v1.528h-.529V4.935h-.058Zm5.344 2.995c-.117.47-.528.764-1.174.764-.764 0-1.233-.529-1.233-1.351s.47-1.41 1.233-1.41c.763 0 1.174.529 1.174 1.351v.176H65.05c0 .47.294.764.705.764.293 0 .529-.117.646-.294h.528Zm-1.879-.88h1.35c0-.412-.293-.705-.645-.705-.411.058-.646.293-.705.704Z"/></svg>
